dist/img/partner_1.svg

<svg width="103" height="30" viewBox="0 0 103 30" fill="none" xmlns="http://www.w3.org/2000/svg">
<path d="M10.5057 3.72892C10.5057 3.72892 10.6084 3.47234 10.8478 3.48945C11.0702 3.50655 11.1386 3.78023 11.1386 3.78023C11.1386 3.78023 18.3057 21.313 18.5623 21.9459C18.8188 22.5788 18.9728 22.9893 19.1438 23.0919C19.2294 23.1432 19.4517 23.1261 19.5373 23.1261C20.1359 23.1261 20.6662 23.1261 21.282 23.1261C21.5043 23.1261 21.6754 22.9551 21.6754 22.7498C21.6754 22.6985 21.6583 22.6301 21.6583 22.6301L12.4215 0.273681C12.4215 0.273681 12.3531 0.102631 12.2334 0.0513159C12.1307 0.0171057 12.0452 0 11.9597 0H9.61627C9.53075 0 9.44522 5.19968e-07 9.3768 0.0513159C9.29128 0.119736 9.23996 0.222367 9.23996 0.222367C9.23996 0.222367 0.276869 21.9117 0.122922 22.2709C0.0373968 22.459 -0.065234 22.8011 0.054502 22.9722C0.157133 23.1261 0.293974 23.1261 0.499236 23.1261H12.7294C12.9518 23.1261 13.1228 22.9551 13.1228 22.7498C13.1228 22.6985 13.1228 22.6643 13.1057 22.6301L12.6781 21.1591C12.6268 21.0051 12.4899 20.9025 12.3189 20.8854L11.7031 20.8341L3.85184 20.3038L10.5057 3.72892Z" fill="white"/>
<path d="M31.237 7.38818C30.262 7.38818 28.6883 7.52502 27.337 8.03818C26.4475 8.38028 25.6094 8.99607 24.9765 9.69738C24.3436 10.3987 23.8304 11.254 23.4541 12.2118C23.0778 13.1868 22.8896 14.2474 22.8896 15.3763C22.8896 16.6079 23.0778 17.7026 23.4712 18.6605C23.8475 19.6184 24.3607 20.4223 24.9936 21.0723C25.6265 21.7394 26.3449 22.2355 27.183 22.5776C28.0041 22.9197 29.3212 23.0907 30.1935 23.0907C33.5633 23.0907 34.8975 21.8934 34.8975 21.8934V23.0052C34.8975 24.6302 34.504 25.8105 33.7001 26.546C32.9133 27.2644 31.9212 27.6065 30.3988 27.5894C28.8936 27.5723 27.2001 26.871 26.687 26.6828C26.3791 26.5631 26.1225 26.6315 26.0028 26.9052L25.4212 28.2907C25.3357 28.5131 25.387 28.7868 25.6094 28.8894C30.1422 30.8223 33.8027 29.967 35.5303 28.3249C36.1461 27.7433 36.6251 26.9394 36.9672 26.0328C37.3093 25.1262 37.4632 24.0315 37.4632 22.7657V8.87634C37.4632 8.68818 37.3606 8.51713 37.1895 8.44871C36.454 8.12371 34.008 7.38818 31.237 7.38818ZM34.7777 18.9855C34.3843 19.4644 32.9817 20.8329 30.2791 20.7473C29.6462 20.7302 29.0475 20.6276 28.5001 20.371C27.9357 20.1144 27.4396 19.7552 27.012 19.2592C26.5844 18.7802 26.2423 18.1987 25.9857 17.5144C25.7291 16.8302 25.6094 16.0776 25.6094 15.2224C25.6094 14.3329 25.7462 13.5632 25.9857 12.8789C26.2423 12.1947 26.5844 11.6303 27.012 11.1513C27.4396 10.6724 28.1751 10.2276 28.7396 10.0053C31.0146 9.1158 34.7606 10.1079 34.7606 10.1079V14.3671V18.9855H34.7777Z" fill="white"/>
<path d="M63.8397 9.52824C63.2923 8.87824 61.3595 7.44141 58.3661 7.44141C57.3226 7.44141 55.9029 7.69799 54.9279 8.15983C54.0898 8.55324 53.4227 8.99798 52.8069 9.7164C52.1911 10.4348 51.7293 11.2901 51.3872 12.2651C51.0451 13.2401 50.8911 14.3006 50.8911 15.4466C50.8911 16.7295 51.028 17.8756 51.3872 18.8506C51.9516 20.3729 53.2516 21.7413 55.0819 22.4769C57.9213 23.6229 62.0779 23.0242 64.0279 22.1176C64.2331 22.015 64.3529 21.7755 64.2844 21.5532L63.9081 20.2019C63.8397 19.9282 63.5318 19.7913 63.2752 19.894C62.7792 20.0992 62.266 20.2703 61.7358 20.4071C61.0345 20.5953 56.9976 21.4163 54.8937 19.6545C54.0042 18.919 53.4056 17.5164 53.4398 16.5414H64.9344C65.1739 16.5414 65.3963 16.3532 65.4134 16.0966C65.4476 15.5835 65.4647 15.0703 65.4647 14.5229C65.4647 13.5651 65.3278 12.6414 65.0542 11.7861C64.7976 10.9309 64.3871 10.1782 63.8397 9.52824ZM53.3885 14.3861C53.5424 12.8466 54.0214 11.8545 54.7911 11.0506C55.595 10.2124 56.895 9.7335 58.3489 9.7335C59.666 9.7335 61.1713 10.144 61.9239 10.948C62.6766 11.7519 63.0358 12.898 63.0358 14.4032H53.3885V14.3861Z" fill="white"/>
<path d="M76.6683 21.2102C76.5827 20.9536 76.3262 20.8168 76.0696 20.9023C75.9156 20.9536 75.7446 21.0049 75.5735 21.0391C75.2143 21.1247 74.8551 21.176 74.4788 21.176C73.692 21.176 73.0762 20.9194 72.6314 20.4062C72.1867 19.8931 71.9643 19.1063 71.9643 18.0457V1.77875C71.9643 1.52217 71.7591 1.2998 71.4854 1.2998H69.7748C69.5183 1.2998 69.2959 1.50507 69.2959 1.77875V18.3023C69.2959 19.226 69.4156 20.0128 69.6551 20.6628C69.8946 21.3128 70.2367 21.8431 70.6814 22.2536C71.1091 22.6641 71.6222 22.972 72.2038 23.1602C72.7854 23.3483 73.4183 23.451 74.1025 23.451C74.7354 23.451 75.2998 23.3996 75.8301 23.2799C76.1551 23.2115 76.463 23.126 76.7196 23.0404C76.9591 22.9549 77.0959 22.6983 77.0104 22.4589L76.6683 21.2102Z" fill="white"/>
<path d="M86.2302 21.2102C86.1618 20.9536 85.8881 20.8168 85.6316 20.9023C85.4776 20.9536 85.3066 21.0049 85.1355 21.0391C84.7763 21.1247 84.4171 21.176 84.0408 21.176C83.2539 21.176 82.6382 20.9194 82.1934 20.4062C81.7487 19.8931 81.5263 19.1063 81.5263 18.0457V1.77875C81.5263 1.52217 81.3211 1.2998 81.0474 1.2998H79.3369C79.0803 1.2998 78.8579 1.50507 78.8579 1.77875V18.3023C78.8579 19.226 78.9776 20.0128 79.2342 20.6628C79.4737 21.3128 79.8158 21.8431 80.2434 22.2536C80.6711 22.6641 81.1842 22.972 81.7658 23.1602C82.3474 23.3483 82.9803 23.451 83.6645 23.451C84.2974 23.451 84.8618 23.3996 85.3921 23.2799C85.7171 23.2115 86.0079 23.126 86.2816 23.0404C86.521 22.9549 86.6579 22.6983 86.5724 22.4589L86.2302 21.2102Z" fill="white"/>
<path d="M102.053 12.094C101.659 11.119 101.112 10.2809 100.428 9.59665C99.7436 8.91245 98.9225 8.38219 97.9988 8.00588C97.058 7.62957 96.0659 7.44141 95.0054 7.44141C93.9278 7.44141 92.9186 7.62957 91.9778 8.00588C91.037 8.38219 90.233 8.91245 89.5659 9.59665C88.8817 10.2809 88.3515 11.119 87.958 12.1111C87.5646 13.1032 87.3765 14.215 87.3765 15.4637C87.3765 16.644 87.5646 17.7216 87.958 18.6966C88.3344 19.6887 88.8646 20.5268 89.5488 21.2281C90.233 21.9295 91.037 22.4768 91.9607 22.8702C92.8844 23.2637 93.9107 23.4518 95.0054 23.4518C96.083 23.4518 97.0922 23.2637 98.033 22.8702C98.9738 22.4939 99.7778 21.9466 100.462 21.2281C101.146 20.5268 101.694 19.6716 102.07 18.6795C102.446 17.6874 102.651 16.5756 102.651 15.3611C102.634 14.1808 102.446 13.069 102.053 12.094ZM99.5896 17.7558C99.3673 18.44 99.0423 19.0387 98.6146 19.5347C98.187 20.0308 97.6738 20.4242 97.0751 20.6979C96.4594 20.9716 95.7751 21.1084 95.0054 21.1084C94.3041 21.1084 93.637 20.9545 93.0383 20.6466C92.4396 20.3387 91.9265 19.9282 91.4817 19.415C91.037 18.9018 90.6949 18.2861 90.4554 17.5848C90.2159 16.8834 90.0962 16.1479 90.0962 15.3953C90.0962 13.7019 90.5238 12.3506 91.3962 11.3243C92.2686 10.298 93.4659 9.78481 95.0225 9.78481C95.7238 9.78481 96.3738 9.93876 96.9896 10.2467C97.5883 10.5545 98.1015 10.9651 98.5462 11.4782C98.9909 11.9914 99.333 12.5901 99.5725 13.2743C99.812 13.9585 99.9488 14.694 99.9488 15.4466C99.9317 16.3019 99.812 17.0716 99.5896 17.7558Z" fill="white"/>
<path d="M49.3344 7.9176C47.8121 7.30182 45.1607 7.35313 44.3739 7.54129C42.4239 8.02023 41.2607 8.48207 41.2607 12.057V22.628C41.2607 22.8846 41.466 23.107 41.7397 23.107H43.4502C43.7068 23.107 43.9292 22.9017 43.9292 22.628V15.957C43.9292 11.2531 44.1686 10.5005 44.87 10.0557C45.5713 9.62812 48.0002 9.95312 48.6502 10.1413C48.8726 10.1926 49.0779 10.09 49.1463 9.8847L49.6081 8.49918C49.6937 8.25971 49.5739 8.00313 49.3344 7.9176Z" fill="white"/>
</svg>

<svg width="103" height="30" fill="none" xmlns="http://www.w3.org/2000/svg"><path d="M10.506 3.729s.102-.257.342-.24c.222.018.29.291.29.291s7.168 17.533 7.424 18.166c.257.633.41 1.043.582 1.146.085.051.308.034.393.034h1.745a.384.384 0 00.393-.376c0-.052-.017-.12-.017-.12L12.421.274s-.068-.171-.188-.223A.851.851 0 0011.96 0H9.616c-.085 0-.17 0-.24.051-.085.069-.136.171-.136.171S.277 21.912.123 22.271c-.086.188-.188.53-.068.701.102.154.239.154.444.154h12.23a.384.384 0 00.394-.376c0-.052 0-.086-.017-.12l-.428-1.47a.409.409 0 00-.36-.275l-.615-.05-7.851-.531 6.654-16.575zm20.731 3.659c-.975 0-2.549.137-3.9.65-.89.342-1.728.958-2.36 1.66-.633.7-1.147 1.556-1.523 2.514-.376.975-.564 2.035-.564 3.164 0 1.232.188 2.327.581 3.284.377.958.89 1.762 1.523 2.412a6.199 6.199 0 002.189 1.506c.821.342 2.138.513 3.01.513 3.37 0 4.704-1.198 4.704-1.198v1.112c0 1.625-.393 2.806-1.197 3.541-.787.718-1.779 1.06-3.301 1.043-1.505-.017-3.199-.718-3.712-.906-.308-.12-.565-.052-.684.222l-.582 1.386c-.085.222-.034.496.188.598 4.533 1.933 8.194 1.078 9.921-.564.616-.582 1.095-1.386 1.437-2.292.342-.907.496-2.002.496-3.267V8.876a.45.45 0 00-.273-.427c-.736-.325-3.182-1.06-5.953-1.06zm3.54 11.597c-.393.48-1.795 1.848-4.498 1.762-.633-.017-1.232-.12-1.779-.376a4.253 4.253 0 01-1.488-1.112 5.447 5.447 0 01-1.026-1.745c-.257-.684-.377-1.436-.377-2.292 0-.89.137-1.659.377-2.343a5.386 5.386 0 011.026-1.728c.428-.479 1.163-.923 1.728-1.146 2.275-.89 6.02.103 6.02.103v8.877h.018zM63.84 9.528c-.548-.65-2.48-2.087-5.474-2.087-1.043 0-2.463.257-3.438.719-.838.393-1.505.838-2.121 1.556-.616.719-1.078 1.574-1.42 2.55-.342.974-.496 2.035-.496 3.18 0 1.284.137 2.43.496 3.405.565 1.522 1.865 2.89 3.695 3.626 2.84 1.146 6.996.547 8.946-.36a.485.485 0 00.256-.564l-.376-1.351c-.068-.274-.376-.41-.633-.308-.496.205-1.009.376-1.54.513-.7.188-4.737 1.01-6.841-.753-.89-.735-1.488-2.138-1.454-3.113h11.494c.24 0 .462-.188.48-.444a23.6 23.6 0 00.05-1.574 8.97 8.97 0 00-.41-2.737 6.266 6.266 0 00-1.214-2.258zm-10.452 4.858c.154-1.54.633-2.531 1.403-3.335.804-.839 2.104-1.318 3.558-1.318 1.317 0 2.822.411 3.575 1.215.753.804 1.112 1.95 1.112 3.455h-9.648v-.017zm23.28 6.824a.467.467 0 00-.598-.308 4.2 4.2 0 01-.496.137c-.36.086-.719.137-1.095.137-.787 0-1.403-.257-1.848-.77-.444-.513-.667-1.3-.667-2.36V1.779a.478.478 0 00-.479-.48h-1.71a.478.478 0 00-.48.48v16.523c0 .924.12 1.71.36 2.36.24.65.582 1.181 1.026 1.592.428.41.941.718 1.523.906a6.136 6.136 0 001.899.291c.632 0 1.197-.051 1.727-.171a8.21 8.21 0 00.89-.24.46.46 0 00.29-.581l-.342-1.249zm9.562 0a.46.46 0 00-.598-.308 4.2 4.2 0 01-.497.137 4.65 4.65 0 01-1.094.137c-.787 0-1.403-.257-1.848-.77-.444-.513-.667-1.3-.667-2.36V1.779a.478.478 0 00-.479-.48h-1.71a.478.478 0 00-.48.48v16.523c0 .924.12 1.71.377 2.36.24.65.582 1.181 1.01 1.592.427.41.94.718 1.522.906a6.134 6.134 0 001.898.291 7.77 7.77 0 001.728-.171c.325-.069.616-.154.89-.24a.46.46 0 00.29-.581l-.342-1.249zm15.823-9.116a7.44 7.44 0 00-1.625-2.497 7.303 7.303 0 00-2.43-1.591 7.963 7.963 0 00-2.993-.565 8.076 8.076 0 00-3.027.565 6.9 6.9 0 00-2.412 1.59c-.684.685-1.215 1.523-1.608 2.515-.393.992-.582 2.104-.582 3.353 0 1.18.189 2.258.582 3.233.376.992.907 1.83 1.59 2.531a7.361 7.361 0 002.413 1.642c.923.394 1.95.582 3.044.582 1.078 0 2.087-.188 3.028-.582a6.787 6.787 0 002.429-1.642 7.357 7.357 0 001.608-2.549c.376-.992.581-2.103.581-3.318-.017-1.18-.205-2.292-.598-3.267zm-2.463 5.662a5.117 5.117 0 01-.975 1.779 4.47 4.47 0 01-1.54 1.163c-.616.274-1.3.41-2.07.41a4.27 4.27 0 01-1.967-.461 5.168 5.168 0 01-1.556-1.232 5.464 5.464 0 01-1.027-1.83 6.754 6.754 0 01-.359-2.19c0-1.693.428-3.044 1.3-4.07.873-1.027 2.07-1.54 3.626-1.54.702 0 1.352.154 1.968.462a5.167 5.167 0 011.556 1.231 5.471 5.471 0 011.026 1.796c.24.685.377 1.42.377 2.173-.017.855-.137 1.625-.36 2.309zM49.334 7.918c-1.522-.616-4.173-.565-4.96-.377-1.95.48-3.113.941-3.113 4.516v10.571c0 .257.205.479.479.479h1.71a.478.478 0 00.48-.479v-6.671c0-4.704.239-5.457.94-5.901.701-.428 3.13-.103 3.78.085.223.052.428-.051.496-.256l.462-1.386a.45.45 0 00-.274-.581z" fill="#fff"/></svg>
